public/tools-icons/javascript.svg

<svg xmlns="http://www.w3.org/2000/svg" width="24" height="24" fill="none" viewBox="0 0 24 24"><g clip-path="url(#a)"><path fill="#c8c2ff" d="M0 0h24v24H0zm22.034 18.276c-.175-1.095-.888-2.015-3.003-2.873-.736-.345-1.554-.585-1.797-1.14-.091-.33-.105-.51-.046-.705.15-.646.915-.84 1.515-.66.39.12.75.42.976.9 1.034-.676 1.034-.676 1.755-1.125-.27-.42-.404-.601-.586-.78-.63-.705-1.469-1.065-2.834-1.034l-.705.089c-.676.165-1.32.525-1.71 1.005-1.14 1.291-.811 3.541.569 4.471 1.365 1.02 3.361 1.244 3.616 2.205.24 1.17-.87 1.545-1.966 1.41-.811-.18-1.26-.586-1.755-1.336l-1.83 1.051c.21.48.45.689.81 1.109 1.74 1.756 6.09 1.666 6.871-1.004.029-.09.24-.705.074-1.65zm-8.983-7.245h-2.248c0 1.938-.009 3.864-.009 5.805 0 1.232.063 2.363-.138 2.711-.33.689-1.18.601-1.566.48-.396-.196-.597-.466-.83-.855-.063-.105-.11-.196-.127-.196l-1.825 1.125c.305.63.75 1.172 1.324 1.517.855.51 2.004.675 3.207.405.783-.226 1.458-.691 1.811-1.411.51-.93.402-2.07.397-3.346.012-2.054 0-4.109 0-6.179z"/></g><defs><clipPath id="a"><path fill="#fff" d="M0 0h24v24H0z"/></clipPath></defs></svg>

<svg xmlns="http://www.w3.org/2000/svg" width="24" height="24" fill="none"><g clip-path="url(#clip0_140_5)"><path fill="#c8c2ff" d="M0 0H24V24H0V0ZM22.034 18.276C21.859 17.181 21.146 16.261 19.031 15.403C18.295 15.058 17.477 14.818 17.234 14.263C17.143 13.933 17.129 13.753 17.188 13.558C17.338 12.912 18.103 12.718 18.703 12.898C19.093 13.018 19.453 13.318 19.679 13.798C20.713 13.122 20.713 13.122 21.434 12.673C21.164 12.253 21.03 12.072 20.848 11.893C20.218 11.188 19.379 10.828 18.014 10.859L17.309 10.948C16.633 11.113 15.989 11.473 15.599 11.953C14.459 13.244 14.788 15.494 16.168 16.424C17.533 17.444 19.529 17.668 19.784 18.629C20.024 19.799 18.914 20.174 17.818 20.039C17.007 19.859 16.558 19.453 16.063 18.703L14.233 19.754C14.443 20.234 14.683 20.443 15.043 20.863C16.783 22.619 21.133 22.529 21.914 19.859C21.943 19.769 22.154 19.154 21.988 18.209L22.034 18.276ZM13.051 11.031H10.803C10.803 12.969 10.794 14.895 10.794 16.836C10.794 18.068 10.857 19.199 10.656 19.547C10.326 20.236 9.476 20.148 9.09 20.027C8.694 19.831 8.493 19.561 8.26 19.172C8.197 19.067 8.15 18.976 8.133 18.976L6.308 20.101C6.613 20.731 7.058 21.273 7.632 21.618C8.487 22.128 9.636 22.293 10.839 22.023C11.622 21.797 12.297 21.332 12.65 20.612C13.16 19.682 13.052 18.542 13.047 17.266C13.059 15.212 13.047 13.157 13.047 11.087L13.051 11.031Z"/></g><defs><clipPath id="clip0_140_5"><path fill="#fff" d="M0 0H24V24H0z"/></clipPath></defs></svg>
